src/assets/github.svg

<svg width="25" height="25" viewBox="0 0 25 25" fill="none" xmlns="http://www.w3.org/2000/svg">
<path fill-rule="evenodd" clip-rule="evenodd" d="M12.4996 0.996582C5.98652 0.996582 0.705078 6.27685 0.705078 12.7911C0.705078 18.0024 4.08457 22.4233 8.7709 23.9831C9.36016 24.0925 9.57656 23.7272 9.57656 23.4157C9.57656 23.1345 9.56563 22.2054 9.56055 21.2198C6.2793 21.9333 5.58691 19.8282 5.58691 19.8282C5.05039 18.4649 4.27734 18.1024 4.27734 18.1024C3.20703 17.3704 4.35801 17.3856 4.35801 17.3856C5.54219 17.4687 6.16602 18.6011 6.16602 18.6011C7.21797 20.4038 8.9252 19.8827 9.59824 19.5815C9.7041 18.8192 10.0098 18.2987 10.3471 18.0042C7.72734 17.7063 4.97324 16.6948 4.97324 12.1755C4.97324 10.8878 5.43418 9.83564 6.18867 9.00947C6.06602 8.7126 5.6623 7.51299 6.30273 5.88838C6.30273 5.88838 7.29297 5.57139 9.54688 7.09736C10.4879 6.83584 11.4971 6.70439 12.4996 6.6999C13.5016 6.70439 14.5113 6.83545 15.4541 7.09697C17.7053 5.571 18.6943 5.88799 18.6943 5.88799C19.3363 7.5124 18.9326 8.71221 18.8102 9.00908C19.5664 9.83525 20.024 10.8874 20.024 12.1751C20.024 16.7052 17.2648 17.7024 14.6385 17.9946C15.0617 18.3606 15.4387 19.0786 15.4387 20.1788C15.4387 21.7569 15.425 23.0271 15.425 23.4155C15.425 23.7294 15.6375 24.0972 16.2352 23.9813C20.9188 22.42 24.2943 18.0005 24.2943 12.7911C24.2941 6.27725 19.0133 0.996582 12.4996 0.996582Z" fill="white"/>
<path d="M5.17155 17.9309C5.14558 17.9895 5.05339 18.007 4.9694 17.967C4.88347 17.9287 4.83562 17.8488 4.86335 17.79C4.88874 17.7295 4.98112 17.7129 5.06647 17.7533C5.15241 17.7918 5.20124 17.8725 5.17136 17.9311L5.17155 17.9309ZM5.64929 18.4639C5.59323 18.516 5.48327 18.4918 5.40866 18.4092C5.33132 18.3271 5.31687 18.2172 5.37409 18.1643C5.4323 18.1123 5.53894 18.1369 5.61628 18.2189C5.69323 18.3021 5.70847 18.4111 5.64948 18.4641L5.64929 18.4639ZM6.11452 19.143C6.04226 19.1934 5.9239 19.1463 5.85085 19.0414C5.77858 18.9363 5.77858 18.8103 5.8528 18.7602C5.92565 18.7098 6.04226 18.7553 6.11648 18.8592C6.18835 18.9656 6.18835 19.0918 6.11452 19.143ZM6.75144 19.7994C6.68698 19.8707 6.54909 19.8516 6.44831 19.7545C6.34538 19.6594 6.31667 19.524 6.38132 19.4529C6.44694 19.3814 6.58542 19.4014 6.68679 19.4978C6.78972 19.5928 6.82077 19.7283 6.75183 19.7992L6.75144 19.7994ZM7.63034 20.1805C7.60163 20.2728 7.46921 20.3148 7.33542 20.2754C7.20202 20.235 7.11472 20.127 7.14206 20.0336C7.16941 19.9404 7.3028 19.8969 7.43737 19.9389C7.57077 19.9791 7.65808 20.0865 7.63034 20.1805ZM8.59577 20.251C8.59909 20.3482 8.48581 20.4287 8.34577 20.4307C8.20456 20.434 8.0903 20.3551 8.08894 20.2594C8.08894 20.1611 8.19987 20.0816 8.34089 20.0789C8.48093 20.0764 8.59597 20.1545 8.59597 20.2508L8.59577 20.251ZM9.49382 20.0982C9.51062 20.193 9.41315 20.2904 9.2739 20.3164C9.13718 20.3418 9.01022 20.2828 8.99265 20.1889C8.97585 20.0916 9.07507 19.9941 9.21179 19.9689C9.35124 19.9449 9.47624 20.002 9.49382 20.0982Z" fill="white"/>
</svg>

<svg width="25" height="25" fill="none" xmlns="http://www.w3.org/2000/svg"><path fill-rule="evenodd" clip-rule="evenodd" d="M12.5.997C5.987.997.705 6.277.705 12.79c0 5.211 3.38 9.632 8.066 11.192.59.11.806-.256.806-.567 0-.282-.011-1.21-.016-2.196-3.282.713-3.974-1.392-3.974-1.392-.537-1.363-1.31-1.726-1.31-1.726-1.07-.732.081-.716.081-.716 1.184.083 1.808 1.215 1.808 1.215 1.052 1.803 2.76 1.282 3.432.98.106-.762.412-1.282.75-1.577-2.62-.298-5.375-1.31-5.375-5.829 0-1.287.461-2.34 1.216-3.166-.123-.296-.527-1.496.114-3.12 0 0 .99-.318 3.244 1.208.94-.261 1.95-.393 2.953-.397 1.002.004 2.011.135 2.954.397 2.251-1.526 3.24-1.209 3.24-1.209.642 1.624.239 2.824.116 3.121.756.826 1.214 1.878 1.214 3.166 0 4.53-2.76 5.527-5.386 5.82.424.366.8 1.084.8 2.184 0 1.578-.013 2.848-.013 3.237 0 .313.212.681.81.565 4.684-1.561 8.06-5.98 8.06-11.19C24.294 6.277 19.012.997 12.5.997Z" fill="currentColor"/><path d="M5.172 17.93c-.026.06-.119.077-.203.037-.086-.038-.133-.118-.106-.177.026-.06.118-.077.203-.037.086.039.135.12.105.178Zm.477.534c-.056.052-.166.028-.24-.055-.078-.082-.092-.192-.035-.245.058-.052.165-.027.242.055.077.083.092.192.033.245Zm.466.679c-.073.05-.191.003-.264-.102-.072-.105-.072-.23.002-.28.073-.051.19-.006.263.098.072.107.072.233-.001.284Zm.636.656c-.064.072-.202.053-.303-.044-.103-.096-.131-.231-.067-.302.066-.072.204-.052.306.045.103.095.134.23.065.301Zm.88.381c-.03.093-.162.135-.296.095-.133-.04-.22-.148-.193-.241.027-.094.16-.137.295-.095.134.04.221.148.193.241Zm.965.071c.003.097-.11.178-.25.18-.141.003-.256-.076-.257-.172 0-.098.11-.177.252-.18.14-.003.255.075.255.172Zm.898-.153c.017.095-.08.192-.22.218-.137.026-.264-.033-.281-.127-.017-.097.082-.195.219-.22.14-.024.264.033.282.13Z" fill="currentColor"/></svg>
